bluebottlecoffee.svg

<svg viewBox="0 0 24 24" xmlns="http://www.w3.org/2000/svg"><path d="M11.2251 1.09433C10.4422 0.988525 10.2447 1.06611 10.2376 0.304327C10.2517 0.120933 10.4351-0.281122 10.8019 0.31138C10.9641 0.501827 11.1687 0.607631 11.338 0.66406C11.1828 0.607631 12.3537 0.875668 13.1296 0.720489C13.3271 0.854507 13.1296 1.10138 13.0661 1.17192C13.045 1.19308 12.3043 1.37647 11.5919 1.3271C11.5849 1.30594 11.5143 1.11549 11.5143 1.11549C11.5214 1.11549 11.2463 1.09433 11.2251 1.09433M16.6493 11.0046C16.607 10.6943 16.5576 10.4121 16.5083 10.1441C16.1274 8.84623 15.6548 7.46373 14.3499 6.87122C13.7997 6.65962 12.7558 6.70899 12.6076 5.41113C12.6076 5.0655 12.6006 1.48933 12.6006 1.48933L10.943 1.8279L10.943 2.08183C10.943 2.08183 10.9148 2.83657 10.9148 2.82951C10.9148 2.82951 10.9148 3.18219 10.9289 3.61246C10.9641 5.61568 11.0699 6.88533 8.89039 7.70355C7.54315 8.21141 7.45851 8.81802 7.31744 10.3628C7.31038 10.4756 7.29628 10.5814 7.28922 10.6872C7.28922 10.6449 6.84485 15.0181 8.31199 21.98C8.31199 21.98 8.53771 23.1157 8.56592 23.2779C8.58003 23.3625 8.66467 23.4754 8.89744 23.6376C11.3944 24.2372 11.9305 23.7999 13.2425 23.9762C14.5685 24.1525 15.7606 23.292 15.7818 23.2779C15.9158 23.2426 16.346 22.3398 16.4025 21.2182C16.9174 18.1711 16.7904 13.3182 16.6493 11.0046" fill="#00a1df"/></svg>

<svg viewBox="0 0 24 24" xmlns="http://www.w3.org/2000/svg"><path d="M11.225 1.094c-.783-.105-.98-.028-.987-.79.014-.183.197-.585.564.007a1.2 1.2 0 0 0 .536.353c-.155-.056 1.016.212 1.792.056.197.135 0 .381-.064.452-.021.021-.762.204-1.474.155l-.078-.212a13.5 13.5 0 0 0-.289-.02m5.424 9.91c-.042-.31-.091-.593-.14-.86-.382-1.299-.854-2.681-2.16-3.274-.55-.211-1.593-.162-1.741-1.46L12.6 1.49l-1.658.339v.254l-.028.748s0 .352.014.782c.035 2.004.14 3.273-2.039 4.092-1.347.507-1.431 1.114-1.573 2.659-.007.113-.02.218-.028.324 0-.042-.444 4.331 1.023 11.293 0 0 .226 1.136.254 1.298.014.085.099.197.331.36 2.497.6 3.034.162 4.345.338 1.326.177 2.519-.684 2.54-.698.134-.035.564-.938.62-2.06.515-3.047.388-7.9.247-10.213" fill="#00a1df"/></svg>
